X:1
T:One Wet Afternoon
C:Bill Case, Mount Gambier
N:from a 1996 recording of Bill
N:Bill played the A part up an octave
M:4/4
L:1/8
K:Cmaj
|G2A2B2||"C"c2G2A2E2|G2C2E2-E2|EDE2F2G2|"F"A4-A4|
A2LA2A2A2|"C"G2G4 (3EDC|EE E2D2C2|"G7"D4 (3G2A2B2|
"C"c2G2A2E2|G2C2E2EE|EDE2F2G2|"F"A4A4|
A2LA2A2A2|"C"G2G2(3GFE E2|"G7"F2D2A,2B,2|"C"C2C2E2D2|]
|:"C"C2CDE2EF|G2G2c2d2|ede2d2c2|"F"A2LA4de|
f2A2f2A2|1"C"e2G2e2G2|"G7"d2>c2B2A2|G2>F2E2D2:|2"C"e2G2e2de|"G7"f2d2A2B2|"C"c2ccA2B2|]
